icons/svg/window-multiple--var.svg

<svg width="24" height="24" viewBox="0 0 24 24" fill="none" xmlns="http://www.w3.org/2000/svg">
<path d="M2.75 6.75C2.75 4.54086 4.54086 2.75 6.75 2.75H14.25C16.4591 2.75 18.25 4.54086 18.25 6.75V14.25C18.25 16.4591 16.4591 18.25 14.25 18.25H6.75C4.54086 18.25 2.75 16.4591 2.75 14.25V6.75Z" stroke="currentColor" stroke-width="1.5" stroke-linecap="round" stroke-linejoin="round"/>
<path d="M21.25 6.75V14.25C21.25 18.116 18.116 21.25 14.25 21.25H6.75" stroke="currentColor" stroke-width="1.5" stroke-linecap="round" stroke-linejoin="round"/>
<path d="M2.75 6.97729H18.25" stroke="currentColor" stroke-width="1.5" stroke-linecap="round" stroke-linejoin="round"/>
</svg>

<svg xmlns="http://www.w3.org/2000/svg" width="24" height="24" fill="none" viewBox="0 0 24 24"><path stroke="currentColor" stroke-linecap="round" stroke-linejoin="round" stroke-width="1.5" d="M2.75 6.75a4 4 0 0 1 4-4h7.5a4 4 0 0 1 4 4v7.5a4 4 0 0 1-4 4h-7.5a4 4 0 0 1-4-4z"/><path stroke="currentColor" stroke-linecap="round" stroke-linejoin="round" stroke-width="1.5" d="M21.25 6.75v7.5a7 7 0 0 1-7 7h-7.5m-4-14.273h15.5"/></svg>
